X:1
T:Title
L:1/8
M:9/8
I:linebreak $
K:D
V:1 treble nm="Voice"
V:1
"Em" BAG FED E2 E | EFG EFG"D" A2 A | AGA"Em" B2 G E3 |"Em" dBA AGG GFE |"D" DEF DEG A2 A | %5
"Em" dBG BAG"D" A2 A |1 AGA"Em" B2 G E2 E :|2[M:6/8] AGA"Em" B2 G |:"Em" EBB BAB |"D" dBB BAB | %10
"Em" EBB BAB |"D" edB ABG |"Em" EBB BAB |"D" dBB BAB |1 AFG AFG | AGA"Bm" B2 G :|2 Aee edB | %17
[M:9/8]"Em" BAG B2 G E3 :| %18
